resources/svg/ad.svg

<svg xmlns="http://www.w3.org/2000/svg" viewBox="0 0 24 24" fill="currentColor"><path fill="none" stroke="currentColor" stroke-linecap="round" stroke-linejoin="round" stroke-width="2" d="M10,10 L14,10 L14,14 L10,14 L10,10 Z M14,18 L10,18 C7.790861,18 6,16.209139 6,14 L6,10 C6,7.790861 7.790861,6 10,6 L10,6 L14,6 C16.209139,6 18,7.790861 18,10 L18,14 M14,22 L10,22 C5.581722,22 2,18.418278 2,14 L2,10 C2,5.581722 5.581722,2 10,2 L10,2 L14,2 C18.418278,2 22,5.581722 22,10 L22,14"/></svg>

<svg viewBox="0 0 24 24"><path fill="none" stroke="currentColor" stroke-linecap="round" stroke-linejoin="round" stroke-width="2" d="M10 10h4v4h-4v-4zm4 8h-4a4 4 0 0 1-4-4v-4a4 4 0 0 1 4-4h4a4 4 0 0 1 4 4v4m-4 8h-4a8 8 0 0 1-8-8v-4a8 8 0 0 1 8-8h4a8 8 0 0 1 8 8v4"/></svg>
